X:160
T: Elizabeth Brogan's
S: "Ceol Rince na hEireann" 1/82
Z: B.Black
N: Close relative of "Blackwater"
L: 1/8
M: 4/4
R: reel
K: G
GABG AGAB|GE E2 GE D2|GABG AGAB|GEDE G2 GD|
GABG AGAB|GE E2 GE D2|GABG AGAB|GEDE G3 ||
D|G2 Bd edge|dB B2 dBAB|G2 Bd edge|dBAG EG G2|
